X:2399
T:Jag går i tusen tanker
T:(Visa efter Sigrid Andersdotter)
S:efter [[Personer/Sigrid Andersdotter]] (Hultman)
O:Hulteberg, Värmland
N:ur EÖ: Denna visade började "En kyrkoherdes dotter i Tabyen häng". (Melodien äldre) (EÖ:s anm.)
B:EÖ, nr 160
R:Visa
Z:Nils L
M:2/4
L:1/16
U:K=fermata
Q:90
%%printtempo 0
K:Gm
D2 | G2B2 d2c2 | B4 KA2G2 | ^F2A2 c2A2 & ^FGAB x4 | B2G2 K^F2D2 |
w: Jag går i tu-sen tan-ker å äl-sker den jag ej kan få Så
G2B2 d2c2 | B4 KA2B2 | D2{/F}G2 {/A}B2A2 | G4 z2G2 |
w: vidt i vär-den van-ker och städ-se sör-ja må Stor
^FGAB c2A2 | B2G2 KF2D2 | GABc d2B2 | A4 z2A2 |
w: hjär_tans_ sorg för dig jag bär Dig som jag höll_ så_ kär Så 
^c2d2 d2=c2 & x4 dc x2 | B4 KA2B2 | D2^F2 A2B2 | G6 |]
w: mån-ga fal-ska tun-gor or-sa-ken der-till är
W:
W: 1. Jag går i tusen tanker
W: å älsker den jag ej kan få
W: Så vidt i värden vanker
W: och städse sörja må
W: Stor hjärtans sorg för dig jag bär
W: Dig som jag höllt så kär
W: Så många falska tungor
W: orsaken dertill är
W: 
W: 2. Långt hellre vill jag vandra 
W: den långa väg med stort besvär
W: Än här i värden leva
W: Bland falska menniskor
W: Åt ödemarken resa må
W: och skogen helt nedslå
W: För hvarje ord jag taler
W: av skogen svar jag får
W: 
W: 3. Nu sluter jag min visa
W: å bjuder dig ett ömt farväl
W: jag kan ej längre skriva
W: min penna den är torr
W: Min hals är hes min sorg är stor
W: Min vän har mig förladt
W: Men Herren Gud i himmelen
W: Han gör mitt hjerta gladt.
(:musicend:)
(:music:)
